;FLAVOR:Marlin
;TIME:26928
;Filament used: 19.7611m
;Layer height: 0.2
;MINX:71.5
;MINY:70.804
;MINZ:0.2
;MAXX:228.702
;MAXY:228.522
;MAXZ:6
;Generated with Cura_SteamEngine 4.13.1
M140 S50
M105
M190 S50
M104 S200
M105
M109 S200
M82 ;absolute extrusion mode
M201 X500.00 Y500.00 Z100.00 E5000.00 ;Setup machine max acceleration
M203 X500.00 Y500.00 Z10.00 E50.00 ;Setup machine max feedrate
M204 P500.00 R1000.00 T500.00 ;Setup Print/Retract/Travel acceleration
M205 X8.00 Y8.00 Z0.40 E5.00 ;Setup Jerk
M220 S100 ;Reset Feedrate
M221 S100 ;Reset Flowrate

G28 ;Home
G29 ;Auto bed Level

G92 E0 ;Reset Extruder
G1 Z2.0 F3000 ;Move Z Axis up
G1 X10.1 Y20 Z0.28 F5000.0 ;Move to start position
G1 X10.1 Y200.0 Z0.28 F1500.0 E15 ;Draw the first line
G1 X10.4 Y200.0 Z0.28 F5000.0 ;Move to side a little
G1 X10.4 Y20 Z0.28 F1500.0 E30 ;Draw the second line
G92 E0 ;Reset Extruder
G1 Z2.0 F3000 ;Move Z Axis up

G92 E0
G92 E0
G1 F2700 E-5
;LAYER_COUNT:30
;LAYER:0
M107
G0 F6000 X75.094 Y74.427 Z0.2
;TYPE:SKIRT
G1 F2700 E0
G1 F1200 X75.783 Y73.79 E0.03121
G1 X76.523 Y73.214 E0.0624
G1 X77.31 Y72.704 E0.09359
G1 X78.138 Y72.262 E0.12481
G1 X79 Y71.893 E0.15599
G1 X79.89 Y71.598 E0.18718
G1 X80.802 Y71.38 E0.21837
G1 X81.73 Y71.241 E0.24958
G1 X82.589 Y71.183 E0.27821
G1 X82.909 Y71.174 E0.28886
G1 X83.218 Y71.17 E0.29914
G1 X126.339 Y71.171 E1.73335
G1 X127.037 Y71.181 E1.75657
G1 X127.655 Y71.207 E1.77714
G1 X128.626 Y71.276 E1.80952
G1 X131.131 Y71.418 E1.89297
G1 X133.72 Y71.491 E1.97911
G1 X135.017 Y71.5 E2.02225
G1 X161.723 Y71.5 E2.9105
G1 X164.331 Y71.463 E2.99725
G1 X166.853 Y71.356 E3.08121
G1 X169.328 Y71.181 E3.16373
G1 X172.156 Y70.897 E3.25826
G1 X173.203 Y70.817 E3.29319
G1 X173.518 Y70.808 E3.30367
G1 X173.832 Y70.804 E3.31411
G1 X216.794 Y70.804 E4.74304
G1 X217.65 Y70.815 E4.77151
G1 X218.587 Y70.869 E4.80272
G1 X219.515 Y71.001 E4.8339
G1 X220.429 Y71.213 E4.86511
G1 X221.321 Y71.502 E4.89629
G1 X222.186 Y71.865 E4.92749
G1 X223.016 Y72.301 E4.95868
G1 X223.806 Y72.806 E4.98986
G1 X224.551 Y73.377 E5.02108
G1 X225.244 Y74.009 E5.05228
G1 X225.881 Y74.697 E5.08346
G1 X226.456 Y75.438 E5.11466
G1 X226.967 Y76.224 E5.14584
G1 X227.409 Y77.052 E5.17706
G1 X227.778 Y77.913 E5.20821
G1 X228.073 Y78.804 E5.23943
G1 X228.291 Y79.716 E5.27062
G1 X228.431 Y80.643 E5.3018
G1 X228.488 Y81.491 E5.33007
G1 X228.497 Y81.797 E5.34025
G1 X228.502 Y82.12 E5.35099
G1 X228.502 Y125.57 E6.79615
G1 X228.497 Y126.941 E6.84175
G1 X228.502 Y127.649 E6.8653
G1 X228.502 Y166.541 E8.15885
G1 X228.539 Y169.139 E8.24527
G1 X228.654 Y171.814 E8.33432
G1 X228.674 Y172.167 E8.34608
G1 X228.687 Y172.471 E8.3562
G1 X228.697 Y172.801 E8.36718
G1 X228.702 Y173.134 E8.37826
G1 X228.701 Y216.204 E9.81077
G1 X228.692 Y216.931 E9.83495
G1 X228.641 Y217.868 E9.86617
G1 X228.509 Y218.796 E9.89734
G1 X228.3 Y219.71 E9.92853
G1 X228.013 Y220.603 E9.95972
G1 X227.651 Y221.469 E9.99094
G1 X227.217 Y222.3 E10.02212
G1 X226.713 Y223.091 E10.05332
G1 X226.144 Y223.836 E10.0845
G1 X225.513 Y224.531 E10.11572
G1 X224.826 Y225.169 E10.1469
G1 X224.087 Y225.746 E10.17809
G1 X223.301 Y226.258 E10.20929
G1 X222.475 Y226.701 E10.24046
G1 X221.613 Y227.073 E10.27169
G1 X220.724 Y227.369 E10.30285
G1 X219.812 Y227.589 E10.33405
G1 X218.885 Y227.73 E10.36524
G1 X218.001 Y227.791 E10.39471
G1 X217.68 Y227.8 E10.40539
G1 X217.372 Y227.804 E10.41564
G1 X183.779 Y227.804 E11.53295
G1 X181.171 Y227.841 E11.6197
G1 X178.65 Y227.948 E11.70362
G1 X176.175 Y228.123 E11.78615
G1 X173.459 Y228.394 E11.87693
G1 X173.25 Y228.418 E11.88393
G1 X172.3 Y228.487 E11.91561
G1 X171.984 Y228.496 E11.92612
G1 X171.671 Y228.5 E11.93653
G1 X128.496 Y228.5 E13.37254
G1 X127.339 Y228.517 E13.41103
G1 X126.237 Y228.522 E13.44768
G1 X83.049 Y228.521 E14.88412
G1 X82.351 Y228.511 E14.90733
G1 X81.415 Y228.457 E14.93852
G1 X80.487 Y228.325 E14.96969
G1 X79.573 Y228.113 E15.0009
G1 X78.681 Y227.824 E15.03209
G1 X77.816 Y227.461 E15.06329
G1 X76.986 Y227.025 E15.09447
G1 X76.195 Y226.52 E15.12568
G1 X75.451 Y225.949 E15.15688
G1 X74.758 Y225.317 E15.18807
G1 X74.121 Y224.629 E15.21926
G1 X73.546 Y223.888 E15.25045
G1 X73.035 Y223.102 E15.28163
G1 X72.593 Y222.274 E15.31285
G1 X72.224 Y221.412 E15.34404
G1 X71.929 Y220.522 E15.37522
G1 X71.711 Y219.61 E15.40641
G1 X71.571 Y218.682 E15.43763
G1 X71.513 Y217.81 E15.46669
G1 X71.504 Y217.478 E15.47774
G1 X71.5 Y217.18 E15.48765
G1 X71.5 Y173.756 E16.93194
G1 X71.505 Y172.385 E16.97754
G1 X71.5 Y171.677 E17.00109
G1 X71.501 Y128.571 E18.4348
G1 X71.511 Y127.873 E18.45802
G1 X71.537 Y127.257 E18.47853
G1 X71.633 Y125.918 E18.52317
G1 X71.666 Y125.531 E18.53609
G1 X71.806 Y123.044 E18.61894
G1 X71.888 Y119.13 E18.74915
G1 X71.889 Y82.708 E19.96055
G1 X71.899 Y82.019 E19.98347
G1 X71.953 Y81.083 E20.01465
G1 X72.086 Y80.155 E20.04583
G1 X72.298 Y79.241 E20.07704
G1 X72.586 Y78.349 E20.10822
G1 X72.95 Y77.484 E20.13943
G1 X73.386 Y76.654 E20.17061
G1 X73.891 Y75.864 E20.2018
G1 X74.462 Y75.12 E20.23299
G1 X75.094 Y74.427 E20.26419
G0 F6000 X75.486 Y74.601
G1 F1200 X76.171 Y73.987 E20.29478
G1 X76.908 Y73.434 E20.32543
G1 X77.689 Y72.947 E20.35604
G1 X78.51 Y72.53 E20.38667
G1 X79.364 Y72.186 E20.41729
G1 X80.244 Y71.917 E20.4479
G1 X81.145 Y71.725 E20.47854
G1 X82.058 Y71.612 E20.50913
G1 X82.6 Y71.583 E20.52719
G1 X82.92 Y71.574 E20.53783
G1 X83.218 Y71.57 E20.54775
G1 X126.333 Y71.571 E21.98176
G1 X127.031 Y71.581 E22.00498
G1 X127.627 Y71.606 E22.02482
G1 X128.573 Y71.673 E22.05636
G1 X131.133 Y71.818 E22.14164
G1 X133.706 Y71.891 E22.22725
G1 X135.015 Y71.9 E22.27079
G1 X161.729 Y71.9 E23.1593
G1 X164.354 Y71.863 E23.24662
G1 X166.862 Y71.756 E23.33011
G1 X169.363 Y71.579 E23.4135
G1 X172.23 Y71.292 E23.50934
G1 X173.214 Y71.217 E23.54216
G1 X173.529 Y71.208 E23.55264
G1 X173.832 Y71.204 E23.56272
G1 X216.794 Y71.204 E24.99164
G1 X217.645 Y71.215 E25.01995
G1 X218.564 Y71.268 E25.05057
G1 X219.475 Y71.401 E25.08119
G1 X220.371 Y71.612 E25.1118
G1 X221.245 Y71.9 E25.14241
G1 X222.091 Y72.263 E25.17303
G1 X222.903 Y72.698 E25.20367
G1 X223.673 Y73.202 E25.23428
G1 X224.397 Y73.771 E25.2649
G1 X225.069 Y74.4 E25.29552
G1 X225.684 Y75.086 E25.32616
G1 X226.237 Y75.822 E25.35678
G1 X226.724 Y76.603 E25.38739
G1 X227.141 Y77.424 E25.41802
G1 X227.486 Y78.278 E25.44865
G1 X227.755 Y79.158 E25.47926
G1 X227.947 Y80.058 E25.50987
G1 X228.06 Y80.972 E25.5405
G1 X228.088 Y81.502 E25.55815
G1 X228.097 Y81.808 E25.56833
G1 X228.102 Y82.12 E25.57871
G1 X228.102 Y125.569 E27.02383
G1 X228.097 Y126.944 E27.06956
G1 X228.102 Y127.652 E27.09311
G1 X228.102 Y166.547 E28.38677
G1 X228.139 Y169.163 E28.47378
G1 X228.255 Y171.855 E28.5634
G1 X228.274 Y172.191 E28.5746
G1 X228.287 Y172.483 E28.58432
G1 X228.297 Y172.813 E28.5953
G1 X228.302 Y173.134 E28.60598
G1 X228.301 Y216.199 E30.03832
G1 X228.292 Y216.926 E30.06251
G1 X228.241 Y217.845 E30.09312
G1 X228.11 Y218.757 E30.12376
G1 X227.9 Y219.653 E30.15437
G1 X227.614 Y220.528 E30.18499
G1 X227.253 Y221.375 E30.21561
G1 X226.819 Y222.187 E30.24624
G1 X226.317 Y222.959 E30.27686
G1 X225.749 Y223.684 E30.3075
G1 X225.121 Y224.357 E30.33811
G1 X224.437 Y224.973 E30.36873
G1 X223.702 Y225.527 E30.39934
G1 X222.922 Y226.016 E30.42996
G1 X222.102 Y226.435 E30.46059
G1 X221.249 Y226.781 E30.4912
G1 X220.369 Y227.052 E30.52183
G1 X219.469 Y227.245 E30.55244
G1 X218.555 Y227.36 E30.58308
G1 X217.99 Y227.391 E30.6019
G1 X217.669 Y227.4 E30.61259
G1 X217.372 Y227.404 E30.62246
G1 X183.773 Y227.404 E31.73997
G1 X181.148 Y227.441 E31.82729
G1 X178.64 Y227.548 E31.91078
G1 X176.14 Y227.725 E31.99414
G1 X173.446 Y227.993 E32.08418
G1 X173.205 Y228.021 E32.09225
G1 X172.289 Y228.087 E32.1228
G1 X171.973 Y228.096 E32.13331
G1 X171.671 Y228.1 E32.14336
G1 X128.49 Y228.1 E33.57956
G1 X127.337 Y228.117 E33.61792
G1 X126.235 Y228.122 E33.65457
G1 X83.055 Y228.121 E35.09074
G1 X82.357 Y228.111 E35.11396
G1 X81.438 Y228.058 E35.14458
G1 X80.527 Y227.925 E35.1752
G1 X79.631 Y227.714 E35.20582
G1 X78.757 Y227.426 E35.23642
G1 X77.91 Y227.063 E35.26707
G1 X77.099 Y226.628 E35.29768
G1 X76.329 Y226.124 E35.32829
G1 X75.605 Y225.555 E35.35892
G1 X74.933 Y224.925 E35.38955
G1 X74.318 Y224.24 E35.42017
G1 X73.765 Y223.504 E35.45079
G1 X73.278 Y222.723 E35.4814
G1 X72.861 Y221.902 E35.51203
G1 X72.516 Y221.048 E35.54267
G1 X72.247 Y220.168 E35.57327
G1 X72.055 Y219.267 E35.60391
G1 X71.942 Y218.354 E35.63451
G1 X71.913 Y217.799 E35.65299
G1 X71.904 Y217.467 E35.66404
G1 X71.9 Y217.18 E35.67359
G1 X71.9 Y173.757 E37.11784
G1 X71.905 Y172.382 E37.16358
G1 X71.9 Y171.674 E37.18712
G1 X71.901 Y128.577 E38.62054
G1 X71.911 Y127.879 E38.64375
G1 X71.936 Y127.285 E38.66353
G1 X72.031 Y125.952 E38.70798
G1 X72.068 Y125.52 E38.7224
G1 X72.206 Y123.075 E38.80385
G1 X72.288 Y119.138 E38.93482
G1 X72.289 Y82.714 E40.14629
G1 X72.299 Y82.025 E40.16921
G1 X72.352 Y81.106 E40.19982
G1 X72.485 Y80.195 E40.23045
G1 X72.697 Y79.299 E40.26107
G1 X72.985 Y78.425 E40.29168
G1 X73.348 Y77.579 E40.32229
G1 X73.783 Y76.767 E40.35293
G1 X74.287 Y75.997 E40.38354
G1 X74.856 Y75.273 E40.41417
G1 X75.486 Y74.601 E40.44481
G0 F6000 X75.877 Y74.78
G1 F1200 X76.559 Y74.188 E40.47484
G1 X77.291 Y73.658 E40.5049
G1 X78.067 Y73.196 E40.53494
G1 X78.88 Y72.804 E40.56496
G1 X79.725 Y72.485 E40.595
G1 X80.595 Y72.242 E40.62504
G1 X81.483 Y72.078 E40.65508
G1 X82.611 Y71.983 E40.69273
G1 X82.931 Y71.974 E40.70338
G1 X83.218 Y71.97 E40.71292
G1 X126.327 Y71.971 E42.14673
G1 X127.025 Y71.981 E42.16995
G1 X127.598 Y72.005 E42.18903
G1 X128.52 Y72.07 E42.21977
G1 X131.134 Y72.218 E42.30685
G1 X133.691 Y72.291 E42.39193
G1 X135.012 Y72.3 E42.43587
G1 X161.735 Y72.3 E43.32468
G1 X164.341 Y72.263 E43.41136
G1 X166.909 Y72.154 E43.49685
G1 X169.392 Y71.978 E43.57964
G1 X172.312 Y71.686 E43.67725
G1 X172.349 Y71.68 E43.67849
G1 X173.226 Y71.617 E43.70774
G1 X173.541 Y71.608 E43.71822
G1 X173.832 Y71.604 E43.7279
G1 X216.94 Y71.605 E45.16168
G1 X217.639 Y71.615 E45.18493
G1 X218.54 Y71.668 E45.21495
G1 X219.434 Y71.8 E45.24501
G1 X220.312 Y72.011 E45.27504
G1 X221.168 Y72.299 E45.30508
G1 X221.995 Y72.661 E45.3351
G1 X222.787 Y73.095 E45.36514
G1 X223.538 Y73.598 E45.3952
G1 X224.241 Y74.165 E45.42524
G1 X224.891 Y74.792 E45.45528
G1 X225.483 Y75.474 E45.48532
G1 X226.012 Y76.205 E45.51533
G1 X226.475 Y76.981 E45.54539
G1 X226.867 Y77.794 E45.57541
G1 X227.186 Y78.639 E45.60545
G1 X227.429 Y79.509 E45.63549
G1 X227.594 Y80.397 E45.66553
G1 X227.689 Y81.514 E45.70282
G1 X227.698 Y81.82 E45.713
G1 X227.702 Y82.12 E45.72298
G1 X227.702 Y125.567 E47.16803
G1 X227.697 Y126.947 E47.21393
G1 X227.702 Y127.655 E47.23748
G1 X227.702 Y166.553 E48.53123
G1 X227.739 Y169.151 E48.61765
G1 X227.857 Y171.895 E48.709
G1 X227.875 Y172.214 E48.71963
G1 X227.887 Y172.495 E48.72898
G1 X227.897 Y172.825 E48.73996
G1 X227.902 Y173.134 E48.75024
G1 X227.901 Y216.194 E50.18242
G1 X227.892 Y216.921 E50.2066
G1 X227.841 Y217.823 E50.23665
G1 X227.71 Y218.717 E50.2667
G1 X227.501 Y219.595 E50.29672
G1 X227.215 Y220.452 E50.32677
G1 X226.854 Y221.28 E50.35682
G1 X226.422 Y222.072 E50.38682
G1 X225.921 Y222.824 E50.41688
G1 X225.355 Y223.528 E50.44692
G1 X224.73 Y224.179 E50.47694
G1 X224.049 Y224.773 E50.50699
G1 X223.318 Y225.304 E50.53704
G1 X222.544 Y225.768 E50.56706
G1 X221.731 Y226.162 E50.59711
G1 X220.887 Y226.482 E50.62713
G1 X220.017 Y226.727 E50.65719
G1 X219.13 Y226.893 E50.6872
G1 X217.979 Y226.991 E50.72562
G1 X217.658 Y227 E50.7363
G1 X217.372 Y227.004 E50.74582
G1 X183.767 Y227.004 E51.86352
G1 X181.161 Y227.041 E51.95021
G1 X178.596 Y227.15 E52.0356
G1 X176.105 Y227.326 E52.11866
G1 X173.363 Y227.599 E52.21031
G1 X173.159 Y227.623 E52.21714
G1 X172.277 Y227.687 E52.24655
G1 X171.961 Y227.696 E52.25707
G1 X171.671 Y227.7 E52.26671
G1 X128.483 Y227.7 E53.70315
G1 X127.335 Y227.717 E53.74134
G1 X126.233 Y227.722 E53.77799
G1 X83.061 Y227.721 E55.2139
G1 X82.363 Y227.711 E55.23711
G1 X81.461 Y227.658 E55.26717
G1 X80.568 Y227.526 E55.29719
G1 X79.69 Y227.315 E55.32722
G1 X78.834 Y227.027 E55.35726
G1 X78.007 Y226.665 E55.38729
G1 X77.215 Y226.23 E55.41734
G1 X76.464 Y225.728 E55.44739
G1 X75.761 Y225.161 E55.47743
G1 X75.111 Y224.534 E55.50747
G1 X74.519 Y223.852 E55.5375
G1 X73.989 Y223.121 E55.56753
G1 X73.527 Y222.345 E55.59757
G1 X73.134 Y221.532 E55.62761
G1 X72.816 Y220.687 E55.65763
G1 X72.573 Y219.817 E55.68768
G1 X72.408 Y218.929 E55.71772
G1 X72.313 Y217.788 E55.7558
G1 X72.304 Y217.456 E55.76685
G1 X72.3 Y217.18 E55.77603
G1 X72.3 Y173.759 E57.22022
G1 X72.305 Y172.379 E57.26611
G1 X72.3 Y171.671 E57.28966
G1 X72.301 Y128.583 E58.72278
G1 X72.311 Y127.885 E58.74599
G1 X72.335 Y127.313 E58.76504
G1 X72.43 Y125.986 E58.80929
G1 X72.466 Y125.567 E58.82327
G1 X72.606 Y123.078 E58.90619
G1 X72.688 Y119.147 E59.03696
G1 X72.689 Y82.72 E60.24853
G1 X72.699 Y82.031 E60.27145
G1 X72.752 Y81.129 E60.3015
G1 X72.885 Y80.236 E60.33153
G1 X73.096 Y79.358 E60.36156
G1 X73.384 Y78.502 E60.3916
G1 X73.746 Y77.675 E60.42163
G1 X74.181 Y76.883 E60.45168
G1 X74.683 Y76.133 E60.4817
G1 X75.25 Y75.43 E60.51174
G1 X75.877 Y74.78 E60.54178
G1 F2700 E55.54178
;MESH:SquareMould2.stl
G0 F6000 X83.308 Y81.505
G0 X83.308 Y82.59
G0 X126.106 Y82.952
G0 X126.288 Y125.57
;TYPE:WALL-INNER
G1 F2700 E60.54178
G1 F1200 X83.488 Y125.57 E61.96531
G1 X83.488 Y82.77 E63.38884
G1 X126.288 Y82.77 E64.81238
G1 X126.288 Y125.57 E66.23591
G0 F6000 X126.688 Y125.97
;TYPE:WALL-OUTER
G1 F1200 X83.088 Y125.97 E67.68605
G1 X83.088 Y82.37 E69.13619
G1 X126.688 Y82.37 E70.58634
G1 X126.688 Y125.97 E72.03648
G0 F6000 X126.418 Y125.7
G0 X126.178 Y125.18
G0 X125.898 Y125.18
;TYPE:SKIN
G1 F1200 X83.878 Y125.18 E73.43407
G1 X83.878 Y83.16 E74.83166
G1 X125.898 Y83.16 E76.22925
G1 X125.898 Y125.18 E77.62684
G1 F2700 E72.62684
G0 F6000 X126.178 Y125.18
G0 X126.178 Y83.877
G1 F2700 E77.62684
G0 F6000 X125.737 Y83.877
G1 F1200 X125.18 Y83.319 E77.65306
G0 F6000 X124.614 Y83.319
G1 F1200 X125.737 Y84.442 E77.70589
G0 F6000 X125.737 Y85.008
G1 F1200 X124.049 Y83.319 E77.78531
G0 F6000 X123.483 Y83.319
G1 F1200 X125.737 Y85.574 E77.89135
G0 F6000 X125.737 Y86.139
G1 F1200 X122.917 Y83.319 E78.024
G0 F6000 X122.352 Y83.319
G1 F1200 X125.737 Y86.705 E78.18324
G0 F6000 X125.737 Y87.271
G1 F1200 X121.786 Y83.319 E78.36911
G0 F6000 X121.22 Y83.319
G1 F1200 X125.737 Y87.836 E78.58157
G0 F6000 X125.737 Y88.402
G1 F1200 X120.655 Y83.319 E78.82064
G0 F6000 X120.089 Y83.319
G1 F1200 X125.737 Y88.968 E79.08633
G0 F6000 X125.737 Y89.533
G1 F1200 X119.523 Y83.319 E79.37861
G0 F6000 X118.957 Y83.319
G1 F1200 X125.737 Y90.099 E79.69753
G0 F6000 X125.737 Y90.665
G1 F1200 X118.392 Y83.319 E80.04303
G0 F6000 X117.826 Y83.319
G1 F1200 X125.737 Y91.23 E80.41514
G0 F6000 X125.737 Y91.796
G1 F1200 X117.26 Y83.319 E80.81388
G0 F6000 X116.695 Y83.319
G1 F1200 X125.737 Y92.362 E81.23921
G0 F6000 X125.737 Y92.927
G1 F1200 X116.129 Y83.319 E81.69114
G0 F6000 X115.563 Y83.319
G1 F1200 X125.737 Y93.493 E82.16969
G0 F6000 X125.737 Y94.059
G1 F1200 X114.998 Y83.319 E82.67485
G0 F6000 X114.432 Y83.319
G1 F1200 X125.737 Y94.625 E83.20662
G0 F6000 X125.737 Y95.19
G1 F1200 X113.866 Y83.319 E83.765
G0 F6000 X113.301 Y83.319
G1 F1200 X125.737 Y95.756 E84.34997
G0 F6000 X125.737 Y96.322
G1 F1200 X112.735 Y83.319 E84.96157
G0 F6000 X112.169 Y83.319
G1 F1200 X125.737 Y96.887 E85.59977
G0 F6000 X125.737 Y97.453
G1 F1200 X111.604 Y83.319 E86.26456
G0 F6000 X111.038 Y83.319
G1 F1200 X125.737 Y98.019 E86.95598
G0 F6000 X125.737 Y98.584
G1 F1200 X110.472 Y83.319 E87.674
G0 F6000 X109.907 Y83.319
G1 F1200 X125.737 Y99.15 E88.41862
G0 F6000 X125.737 Y99.716
G1 F1200 X109.341 Y83.319 E89.18986
G0 F6000 X108.775 Y83.319
G1 F1200 X125.737 Y100.281 E89.9877
G0 F6000 X125.737 Y100.847
G1 F1200 X108.209 Y83.319 E90.81216
G0 F6000 X107.644 Y83.319
G1 F1200 X125.737 Y101.413 E91.66323
G0 F6000 X125.737 Y101.978
G1 F1200 X107.078 Y83.319 E92.54089
G0 F6000 X106.512 Y83.319
G1 F1200 X125.737 Y102.544 E93.44517
G0 F6000 X125.737 Y103.11
G1 F1200 X105.947 Y83.319 E94.37606
G0 F6000 X105.381 Y83.319
G1 F1200 X125.737 Y103.675 E95.33354
G0 F6000 X125.737 Y104.241
G1 F1200 X104.815 Y83.319 E96.31765
